X:360
T: "Der sterbende Krieger"
N: Z1040
O: Europa, Mitteleuropa, Deutschland, Westfalen
R: Romanze, Ballade, Tod (Prinz Ludwig von Preussen)
M: 3/4
L: 1/8
K: G
GA | B2B2ce | edd2
ed | dcc2dc | B2z2
GA | B2B2ce | edd2
ed | dcc2dc | B2z2
Bd | dcc2Ae | edd2
Bd | dcc2Ae | edd2
GA | B2B2ce | edd2
ed | c2c2dc | B2z2

@@@ Tune index: 10118
